svg/uf011f-ornament.svg

<svg height="960" style="" width="1320" xmlns="http://www.w3.org/2000/svg"><path d="m660-60a279.31034 279.31034 0 00-278.72845 261.27882 279.31034 279.31034 0 00-261.27155 278.72118 279.31034 279.31034 0 00260.61692 278.6848v-52.29066a227.17241 227.17241 0 01-208.47899-226.39414 227.17241 227.17241 0 01208.55173-226.4014v71.60236a156.41379 156.41379 0 00-134.06897 154.79904 156.41379 156.41379 0 00133.99623 154.79904v-52.96715a104.27586 104.27586 0 01-81.8583-101.83189 104.27586 104.27586 0 0181.93104-101.83916v362.52882a279.31034 279.31034 0 00279.31034 279.31034 279.31034 279.31034 0 00278.72845-261.27155h-.0872a279.31034 279.31034 0 00261.35875-278.72845 279.31034 279.31034 0 00-261.27155-278.72845v.0873a279.31034 279.31034 0 00-278.72845-261.35885zm0 52.137934a227.17241 227.17241 0 01227.17241 227.172406v364.96553h-70.75862v-361.24138a156.41379 156.41379 0 00-156.41379-156.4138 156.41379 156.41379 0 00-.12364 0 156.41379 156.41379 0 00-156.29015 156.4138 156.41379 156.41379 0 000 .12363v513.80739a156.41379 156.41379 0 00156.41379 156.4138 156.41379 156.41379 0 00154.79904-134.06897h71.60236a227.17241 227.17241 0 01-226.4014 208.55176 227.17241 227.17241 0 01-227.17241-227.17244v-521.37932a227.17241 227.17241 0 01227.17241-227.172406zm0 126.620686a104.27586 104.27586 0 01101.84645 81.93104h-203.70017a104.27586 104.27586 0 01101.85372-81.93104zm-104.27586 134.06897h208.55173v70.75862h-208.55173zm383.5862.77101a227.17241 227.17241 0 01208.55176 226.4014 227.17241 227.17241 0 01-227.17244 227.17241h-364.96552v-70.75862h361.24137a156.41379 156.41379 0 00156.41379-156.41379 156.41379 156.41379 0 000-.12364 156.41379 156.41379 0 00-134.06896-154.68267zm-383.5862 122.12554h208.55173v208.55173h-208.55173zm383.5862 2.42941a104.27586 104.27586 0 0181.93106 101.84645 104.27586 104.27586 0 01-81.93106 101.83916zm-381.1495 381.15679h203.68561a104.27586 104.27586 0 01-101.84645 81.93104 104.27586 104.27586 0 01-101.83916-81.93104z" style="stroke-width:3.72413"/></svg>

<svg xmlns="http://www.w3.org/2000/svg" width="1320" height="960">
    <path d="M660-60a279.31 279.31 0 0 0-278.728 261.279A279.31 279.31 0 0 0 120 480a279.31 279.31 0 0 0 260.617 278.685v-52.29A227.17 227.17 0 0 1 172.137 480 227.17 227.17 0 0 1 380.69 253.599V325.2A156.414 156.414 0 0 0 246.62 480a156.414 156.414 0 0 0 133.997 154.799v-52.967A104.276 104.276 0 0 1 298.759 480a104.276 104.276 0 0 1 81.93-101.84v362.53A279.31 279.31 0 0 0 660 1020a279.31 279.31 0 0 0 278.728-261.272h-.087A279.31 279.31 0 0 0 1200 480a279.31 279.31 0 0 0-261.272-278.728v.087A279.31 279.31 0 0 0 660-60m0 52.138A227.17 227.17 0 0 1 887.172 219.31v364.966h-70.758V223.034A156.414 156.414 0 0 0 660 66.621h-.124a156.414 156.414 0 0 0-156.29 156.413v513.932A156.414 156.414 0 0 0 660 893.379 156.414 156.414 0 0 0 814.799 759.31h71.602A227.17 227.17 0 0 1 660 967.862 227.17 227.17 0 0 1 432.828 740.69V219.31A227.17 227.17 0 0 1 660-7.862m0 126.62a104.276 104.276 0 0 1 101.846 81.932h-203.7A104.276 104.276 0 0 1 660 118.759m-104.276 134.07h208.552v70.758H555.724zm383.586.77A227.17 227.17 0 0 1 1147.862 480 227.17 227.17 0 0 1 920.69 707.172H555.724v-70.758h361.242A156.414 156.414 0 0 0 1073.379 480v-.124A156.414 156.414 0 0 0 939.31 325.194zM555.724 375.725h208.552v208.552H555.724zm383.586 2.43A104.276 104.276 0 0 1 1021.241 480a104.276 104.276 0 0 1-81.93 101.84zM558.16 759.31h203.686A104.276 104.276 0 0 1 660 841.241a104.276 104.276 0 0 1-101.84-81.93" style="stroke-width:3.72413"/>
</svg>
